X:1
T: Ap Shenkin
C:
R:Jig
Q:180
K:G
M:6/8
L:1/16
dc|B4B2 B2g2f2|e4e2 e2f2g2|d2e2d2 d2c2B2|B2A2A2 A2d2c2|B4B2 B2g2f2|e4e2 e2f2g2|d2e2d2 c2B2A2|A2G2G2 G4d2|
B4B2 B2g2f2|e4e2 e2f2g2|d2e2d2 d2c2B2|B2A2A2 A2d2c2|B4B2 B2g2f2|e4e2 e2f2g2|d2e2d2 c2B2A2|A2G2G2 G4g2|
b4g2 a4f2|g2f2e2 d2c2B2|c2d2e2 d2g2B2|B2A2A2 A4g2|b4g2 a4f2|g2f2e2 a2g2f2|b2a2g2 f2g2e2|d2g2f2 e2d2c2|
b4g2 a4f2|g2f2e2 d2c2B2|c2d2e2 d2g2B2|B2A2A2 A4g2|b4g2 a4f2|g2f2e2 a2g2f2|b2a2g2 f2g2e2|d2g2g2 g4||
